X: 1
T: String Quartet in F Major opus 17 no 2 mvt 2
C: Franz Joseph Haydn
%%abc-version 2.0
%%abcx-abcm2ps-target-version 5.9.1 (29 Sep 2008)
%%abc-creator hum2abc beta
%%abcx-conversion-date 2021/02/14 14:38:24
%%abc-copyright Copyright (c) 1994, 2000 Center for Computer Assisted Research in the Humanities
%%abc-edited-by Frances Bennion
%%abcx-initial-encoding-date 1997/04/15
%%gracespace 0 6 6
%%humdrum-veritas 874773553
%%humdrum-veritas-data 3299880138
%%linebreak <none>
%%barnumbers 0
L: 1/4
M: 3/4
N: Derived from op17n2-02.krn
Q: "Menuetto: Poco allegretto"
%%staves [1 2 3 4]
V: 1
V: 2
V: 3 clef=alto
V: 4 clef=bass
K: F
[V:1]A2 B [I:setbarnb2] |
[V:2]A2 B |
[V:3]F, F G |
[V:4]F,, F, G, |
[V:1]G2 A |
[V:2]G2 A |
[V:3]E C F |
[V:4]E, C, F, |
[V:1]F2 G |
[V:2]F2 G |
[V:3]D2 B,/G,/ |
[V:4]D, D B, |
[V:1]C D E |
[V:2]C3- |
[V:3]E, F, G, |
[V:4]B,3- |
[V:1]F3 |
[V:2]C3- |
[V:3]F,2 F- |
[V:4]B, A, F,- |
[V:1]G3 |
[V:2]C3- |
[V:3]F E C |
[V:4]F, E, C, |
[V:1]A d =B |
[V:2]C2 F |
[V:3]F2 D |
[V:4]F,2 G, |
[V:1]c e =B |
[V:2]E2 F |
[V:3]C2 D |
[V:4]C,2 G, |
[V:1]c g =B |
[V:2]E2 F |
[V:3]C2 D |
[V:4]C,2 G, |
[V:1]c c' =B |
[V:2]E2 F |
[V:3]C2 D |
[V:4]C,2 G, |
[V:1]c c/=B/ c/B/ |
[V:2]E E E |
[V:3]C C C |
[V:4]C, C, C, |
[V:1]c d B |
[V:2]G,2 G |
[V:3]E,3 |
[V:4]C,3 |
[V:1]A2 c |
[V:2]A2 c |
[V:3]F,3 |
[V:4]F,, F, A, |
[V:1]_E2 D |
[V:2]_E2 D |
[V:3]A, C B, |
[V:4]C F, B, |
[V:1]d B G |
[V:2]d B G |
[V:3]z D B, |
[V:4]B,, G,, B,, |
[V:1]F2 E |
[V:2]F2 E |
[V:3]G, z2 |
[V:4]C, C B, |
[V:1]z f f |
[V:2]z3 |
[V:3]C2 D |
[V:4]A,2 B, |
[V:1]f/e/ e e |
[V:2]z3 |
[V:3]B,2 C |
[V:4]G,2 A, |
[V:1]e/d/ d d |
[V:2]z3 |
[V:3]A,2 B, |
[V:4]F,2 G, |
[V:1]d/c/ c z |
[V:2]z3 |
[V:3]G, z2 |
[V:4]E, z2 |
[V:1]c'2 d' |
[V:2]a3 |
[V:3]z3 |
[V:4]z F F |
[V:1]b2 c' |
[V:2]g3 |
[V:3]d/c/ c c |
[V:4]F/E/ E E |
[V:1]a2 b |
[V:2]f3 |
[V:3]c/B/ B B |
[V:4]E/D/ D D |
[V:1]g2 a |
[V:2]e3 |
[V:3]B/A/ A A |
[V:4]D/C/ C C |
[V:1]f2 g |
[V:2]d3 |
[V:3]A/G/ G G |
[V:4]C/B,/ B, B, |
[V:1]c d e |
[V:2]G3 |
[V:3]E F G |
[V:4]B,3 |
[V:1]f z2 |
[V:2]A z2 |
[V:3]F z2 |
[V:4]A, z2 |
[V:1]d z2 |
[V:2]F z2 |
[V:3]B, z2 |
[V:4]B, z z |
[V:1]A B G |
[V:2]F G E |
[V:3]C3 |
[V:4]C2 C,, |
[V:1]F A E |
[V:2]F2 B, |
[V:3]F,2 G, |
[V:4]F,,2 C, |
[V:1]F c E |
[V:2]A,2 B, |
[V:3]F,2 G, |
[V:4]F,,2 C, |
[V:1]F f E |
[V:2]A,2 B, |
[V:3]F,2 G, |
[V:4]F,,2 C, |
[V:1]F F/E/ F/E/ |
[V:2]A, A, A, |
[V:3]F, C C |
[V:4]F,, F,, F,, |
[V:1]F z2 |
[V:2]A, z2 |
[V:3]C z2 |
[V:4]F,, z2 |
[V:1]f f/e/ f/e/ |
[V:2]A3- |
[V:3]z3 |
[V:4]D D/^C/ D/C/ |
[V:1]f e g |
[V:2]A3- |
[V:3]z3 |
[V:4]D ^C E |
[V:1]g2 f |
[V:2]A3- |
[V:3]z3 |
[V:4]E2 D |
[V:1]e2 e |
[V:2]A B B |
[V:3]z G G |
[V:4]^C3 |
[V:1]e2 d |
[V:2]B3- |
[V:3]G3- |
[V:4]^C2 D |
[V:1]^c3 |
[V:2]B3- |
[V:3]G3- |
[V:4]E3 |
[V:1]d3 |
[V:2]B A A |
[V:3]G F F |
[V:4]D3 |
[V:1]_e3 |
[V:2]A3 |
[V:3]F3- |
[V:4]C3 |
[V:1]d f f |
[V:2]B d d |
[V:3]F z2 |
[V:4]B, z2 |
[V:1]f2 _e |
[V:2]d2 c |
[V:3]z A, A, |
[V:4]F,, F, F, |
[V:1]d _e e |
[V:2]B c c |
[V:3]B, G, G, |
[V:4]G, _E, E, |
[V:1]_e2 c |
[V:2]c2 _E |
[V:3]G,3 |
[V:4]_E,3 |
[V:1]B2 c/A/ |
[V:2]D2 _E |
[V:3]F,2 A, |
[V:4]F,3 |
[V:1]B z2 |
[V:2]D z2 |
[V:3]B, z2 |
[V:4]B,, z2 |
[V:1]d d/_e/ d/e/ |
[V:2]B3 |
[V:3]F3 |
[V:4]B,3 |
[V:1]d g d |
[V:2]B B/c/ B/c/ |
[V:3]G3- |
[V:4]G,3 |
[V:1]c c/d/ c/d/ |
[V:2]B3 |
[V:3]G3 |
[V:4]E,3 |
[V:1]c f c |
[V:2]A A/B/ A/B/ |
[V:3]F3- |
[V:4]F,3 |
[V:1]B B/c/ B/c/ |
[V:2]A3 |
[V:3]F3 |
[V:4]D,3 |
[V:1]B g B |
[V:2]G G/A/ G/A/ |
[V:3]E3- |
[V:4]E,3 |
[V:1]A A/B/ A/B/ |
[V:2]G3 |
[V:3]E3 |
[V:4]^C,3 |
[V:1]A d ^G |
[V:2]F2 D |
[V:3]D3 |
[V:4]D,2 B,, |
[V:1]A3- |
[V:2]^C E/F/ E/F/ |
[V:3]E ^C/D/ C/D/ |
[V:4]A,, z2 |
[V:1]A3- |
[V:2]E G F |
[V:3]^C E D |
[V:4]z3 |
[V:1]A3- |
[V:2]E ^C/D/ C/D/ |
[V:3]^C E/F/ E/F/ |
[V:4]A,, z2 |
[V:1]A3- |
[V:2]^C E D |
[V:3]E G F |
[V:4]z3 |
[V:1]A A A |
[V:2]^C C C |
[V:3]E E E |
[V:4]A,, A,, A,, |
[V:1]A2 z |]
[V:2]^C z2 |]
[V:3]E z2 |]
[V:4]A,, z2 |]

